X: 3
T: Old French
I: RJ R-6 D reel
%O: New England
M: C|
Z: Transcribed to abc by Mary Lou Knack
R: reel
K: D
(3ABc !segno!|\
"D"d2cd BdAF | DFAd f2ed | "A"cdef gece |[1,3 "D"defd A2 :|[2,4 "D"d2f2 d2 :|
|: cd | "A"efed c2A2 | AEAc e2dc | "G"BGBd gfed |1,3 "A"cAce a2 :|2 "A"c2A2 A2 :|4 "A"c2A2 B2"^d.S."c2 |]
% text 01/28/02

